brandFactory_export/3.Masa/Perdida o robo de celulares_3Masa.svg

<?xml version="1.0" encoding="UTF-8"?>
<svg width="24px" height="24px" viewBox="0 0 24 24" version="1.1" xmlns="http://www.w3.org/2000/svg" xmlns:xlink="http://www.w3.org/1999/xlink">
    <title>3.Masa/Perdida o robo de celulares_3Masa</title>
    <g id="Symbols" stroke="none" stroke-width="1" fill="none" fill-rule="evenodd">
        <g id="3.Masa/Perdida-o-robo-de-celulares_3Masa" fill="#5CB615" fill-rule="nonzero">
            <path d="M17.0857143,2.04281037e-13 C18.4168067,2.04281037e-13 19.3882353,0.322689076 20.0537815,0.991596639 C20.7159664,1.65714286 21.0352941,2.62521008 21.0352941,3.94621849 L21.0352941,3.94621849 L21.0352941,19.6773109 C21.0352941,21.0151261 20.712605,21.989916 20.0436975,22.6521008 C19.3815126,23.307563 18.4134454,23.6268908 17.0857143,23.6268908 L17.0857143,23.6268908 L9.22016807,23.6268908 C7.89243698,23.6268908 6.92436975,23.307563 6.26218487,22.6521008 C5.59663866,21.989916 5.27058824,21.0151261 5.27058824,19.6773109 L5.27058824,19.6773109 L5.27058824,15.4016807 C3.72436975,15.2941176 2.49411765,14.810084 1.61008403,13.9596639 C0.561344538,12.9478992 0.0302521013,11.4521008 0.0302521013,9.5092437 C0.0302521013,7.56638655 0.561344538,6.07058824 1.61008403,5.05882353 C2.49411765,4.20504202 3.72773109,3.72436975 5.27731092,3.61680672 C5.32773109,2.48067227 5.65042017,1.62689076 6.25882353,1.01176471 C6.93445378,0.332773109 7.90252101,2.04281037e-13 9.22016807,2.04281037e-13 L9.22016807,2.04281037e-13 Z M13.1596639,18.1546218 C12.3226891,18.1546218 11.8252101,18.6554622 11.8252101,19.492437 C11.8252101,19.8991597 11.9361345,20.2252101 12.1714286,20.4638655 C12.4067227,20.702521 12.7462185,20.8302521 13.1563025,20.8302521 C13.5663866,20.8302521 13.9058824,20.702521 14.1411765,20.4638655 C14.3697479,20.2252101 14.487395,19.8991597 14.4941176,19.492437 C14.4941176,18.6554622 13.9966387,18.1546218 13.1596639,18.1546218 Z M5.94621849,4.94117647 C4.44033613,4.94117647 3.29411765,5.30756303 2.54453782,6.0302521 C1.76806723,6.77647059 1.37478992,7.94957983 1.37478992,9.51260504 C1.37478992,11.0756303 1.76806723,12.2487395 2.54453782,12.994958 C3.29411765,13.7176471 4.44033613,14.0840336 5.94621849,14.0840336 C7.45210084,14.0840336 8.59831933,13.7176471 9.34789916,12.994958 C10.1243697,12.2487395 10.5176471,11.0756303 10.5176471,9.51260504 C10.5176471,7.94957983 10.1243697,6.77647059 9.34789916,6.0302521 C8.59831933,5.30756303 7.45210084,4.94117647 5.94621849,4.94117647 Z M5.61008403,12.1882353 C5.91596639,12.1882353 6.16134454,12.4336134 6.16134454,12.7394958 C6.16134454,13.0420168 5.91596639,13.2907563 5.61008403,13.2907563 C5.30756303,13.2907563 5.05882353,13.0453782 5.05882353,12.7394958 C5.05882353,12.4369748 5.30420168,12.1882353 5.61008403,12.1882353 Z M5.61008403,5.80840336 C6.39663866,5.80840336 7.06890756,6.08739496 7.49915966,6.59495798 C7.87226891,7.03529412 8.02352941,7.60672269 7.93277311,8.20840336 C7.80168067,9.01512605 7.24033613,9.5092437 7.00168067,9.7210084 C6.90756303,9.80504202 6.80672269,9.88571429 6.7092437,9.96638655 C6.54117647,10.1042017 6.10084034,10.4605042 6.09747899,10.5882353 L6.09747899,10.5882353 L6.09747899,11.2 C6.09747899,11.4689076 5.88235294,11.6840336 5.61344538,11.6840336 C5.34453782,11.6840336 5.12941177,11.4655462 5.12941177,11.2 L5.12941177,11.2 L5.12941177,10.5848739 C5.12941177,10.0033613 5.64369748,9.58655462 6.09411765,9.21680672 C6.18487395,9.14285714 6.2789916,9.06554622 6.35966387,8.99495798 C6.53781513,8.84033613 6.90084034,8.51764706 6.97815126,8.05378151 C7.03193277,7.73445378 6.95798319,7.44537815 6.76638656,7.22016807 C6.5210084,6.93109244 6.11092437,6.77310924 5.61344538,6.77310924 C5.19663866,6.77310924 4.84705882,6.90420168 4.60840336,7.15966387 C4.37983193,7.40168067 4.25546219,7.74453782 4.25546219,8.13109244 L4.25546219,8.13109244 L4.25546219,8.26218487 C4.25546219,8.53109244 4.04033613,8.74621849 3.77142857,8.74621849 C3.50252101,8.74621849 3.28739496,8.52773109 3.28739496,8.26218487 L3.28739496,8.26218487 L3.28739496,8.13109244 C3.28739496,7.49915966 3.50588235,6.91764706 3.90252101,6.49747899 C4.32941177,6.04705882 4.9210084,5.80840336 5.61008403,5.80840336 Z" id="Perdida-o-robo-de-celulares_3Masa"></path>
        </g>
    </g>
</svg>

<svg width="24" height="24" viewBox="0 0 24 24" xmlns="http://www.w3.org/2000/svg"><path d="M17.086 0c1.33 0 2.302.323 2.968.992.662.665.981 1.633.981 2.954v15.731c0 1.338-.322 2.313-.991 2.975-.662.656-1.63.975-2.958.975H9.22c-1.328 0-2.296-.32-2.958-.975-.665-.662-.991-1.637-.991-2.975v-4.275c-1.547-.108-2.777-.592-3.66-1.442C.56 12.948.03 11.452.03 9.51c0-1.944.53-3.44 1.58-4.451.883-.854 2.117-1.335 3.666-1.442.05-1.136.373-1.99.982-2.605C6.934.332 7.903 0 9.22 0zM13.16 18.155c-.837 0-1.335.5-1.335 1.337 0 .407.111.733.346.972.236.239.575.366.985.366.41 0 .75-.127.985-.366.229-.239.346-.565.353-.972 0-.837-.497-1.337-1.334-1.337zM5.946 4.94c-1.506 0-2.652.367-3.401 1.09-.777.745-1.17 1.919-1.17 3.482 0 1.563.393 2.736 1.17 3.482.75.723 1.895 1.089 3.401 1.089 1.506 0 2.652-.366 3.402-1.089.776-.746 1.17-1.92 1.17-3.482 0-1.563-.394-2.737-1.17-3.483-.75-.722-1.896-1.089-3.402-1.089zm-.336 7.247a.552.552 0 110 1.102.552.552 0 010-1.102zm0-6.38c.787 0 1.459.28 1.89.787.372.44.524 1.012.433 1.613-.131.807-.693 1.301-.931 1.513-.094.084-.195.165-.293.245-.168.138-.608.495-.612.622v.612a.484.484 0 01-.968 0v-.615c0-.582.515-.998.965-1.368.09-.074.185-.151.266-.222.178-.155.54-.477.618-.941a.993.993 0 00-.212-.834c-.245-.289-.655-.447-1.153-.447-.416 0-.766.131-1.005.387-.228.242-.353.585-.353.971v.131a.484.484 0 01-.968 0v-.13c0-.633.219-1.214.616-1.635.426-.45 1.018-.689 1.707-.689z" fill="#5CB615" fill-rule="nonzero"/></svg>
